X:1
T:Title
%%score { ( 1 4 ) | ( 2 3 5 ) }
L:1/8
Q:1/4=104
M:6/8
K:C
V:1 treble nm="Grand Piano"
V:4 treble 
V:2 bass 
V:3 bass 
V:5 bass 
V:1
 [CE]2 [DF] [EG]2 [Ec] | [Gc]3 .[GB]3 | [Gd]2 [Gc] [EG]2 E | A6 | [FA]2 [FA] [^Fd]2 [Fc] | %5
 [Gc]3 .[DGB]3 | [FB]2 [^FA] [FB]2 [FA] | [B,G]6 | [FB]2 [FB] [FA]2 [FG] | [CE]3 .[CEG]3 | %10
 [FB]2 [FB] [FA]2 [FG] | [EG]3 .[Ec]3 | [FB]2 [FB] A2 [FG] | [Ee]3 [EG]2 A | %14
 [DB]2 [B,D] [DB]2 [CA] |[M:5/8] [B,G]-[B,G]- [B,G]3 |[M:1/8] [DF] |[M:3/4] E2 F G2 [Ec] | %18
 [Fc]3 .[FB]3 | [Ed]2 [Ec] [EG]2 E | A6 | A2 A [^Fd]2 [Fc] | c3 .B3 |[M:7/8] BAB e3 d | %24
[M:3/4] [Ec]6 |] %25
V:2
 z E,G, CG,E, | z F,G, DG,F, | z G,C z G,B, | z A,[K:treble]C .F3 | z A,C z A,D | z E,G, z B,G, | %6
 z A,C z A,C | G,6 | z D,G, z D,G, | z E,G, z G,E, | z D,G, z D,G, | z E,G, CA,E, | %12
 z3[K:treble] .F3[K:bass] | z E,G, C2 E | z ^F,G, CE,F, |[M:5/8] [G,,G,]-[G,,G,]- [G,,G,]3 | %16
[M:1/8] [G,,G,] |[M:3/4] [C,G,C]2 [D,G,C] [E,G,C]2 [C,G,] | [D,G,]3 .[G,,G,]3 | %19
 [C,G,]2 [C,G,] [C,C]2 [C,G,C] | [F,C]6 | [F,C]2 [F,F] [D,A,]2 [D,D] | [G,EG]3 .[G,DG]3 | %23
[M:7/8] DC[G,DF] [G,B,F]3 [G,B,F] |[M:3/4][K:bass] [C,C]6 |] %25
V:3
 C,6 | D,6 | E,3 C,3 | F,6[K:treble] | F,3 D,3 | G,,3 G,,3 | D,3 D,3 | x6 | G,,3 G,,3 | C,3 C,3 | %10
 G,,3 G,,3 | C,6 | z D,G,[K:treble] z G,[K:bass]B, | C,6 | D,6 |[M:5/8] x5 |[M:1/8] x |[M:3/4] x6 | %18
 x6 | x6 | x6 | x6 | x6 |[M:7/8] [G,F]2 z z z z2 |[M:3/4][K:bass] x6 |] %25
V:4
 x6 | x6 | x6 | F3 z3 | x6 | x6 | x6 | x6 | x6 | x6 | x6 | x6 | x6 | x6 | x6 |[M:5/8] x5 | %16
[M:1/8] x |[M:3/4] x6 | x6 | x6 | x6 | x6 | x6 |[M:7/8] x7 |[M:3/4] x6 |] %25
V:5
 x6 | x6 | x6 | x2[K:treble] x4 | x6 | x6 | x6 | x6 | x6 | x6 | x6 | x6 | G,,6[K:treble][K:bass] | %13
 x6 | x6 |[M:5/8] x5 |[M:1/8] x |[M:3/4] x6 | x6 | x6 | x6 | x6 | x6 |[M:7/8] x7 | %24
[M:3/4][K:bass] x6 |] %25

